src/components/gux-icon/icons/ic-video-roster.svg

<svg viewBox="0 0 24 24" xmlns="http://www.w3.org/2000/svg"><path d="M19 10v9H5v-9h14zM9 5v4H5V5h4zm5 0v4h-4V5h4zm5 0v4h-4V5h4z" fill="#444A52" fill-rule="nonzero"/></svg>

<?xml version="1.0" encoding="UTF-8"?>
<svg viewBox="0 0 24 24" version="1.1" xmlns="http://www.w3.org/2000/svg" xmlns:xlink="http://www.w3.org/1999/xlink">
    <!-- Generator: Sketch 64 (93537) - https://sketch.com -->
    <title>ic_video_roster</title>
    <desc>Created with Sketch.</desc>
    <g id="ic_video_roster" stroke="none" stroke-width="1" fill="none" fill-rule="evenodd">
        <path d="M19,10 L19,19 L5,19 L5,10 L19,10 Z M9,5 L9,9 L5,9 L5,5 L9,5 Z M14,5 L14,9 L10,9 L10,5 L14,5 Z M19,5 L19,9 L15,9 L15,5 L19,5 Z" id="Combined-Shape" fill="#444A52" fill-rule="nonzero"></path>
    </g>
</svg>
